static/img/in-field/segmented-controls-primary-disabled.svg

<svg fill="none" height="57" viewBox="0 0 427 57" width="427" xmlns="http://www.w3.org/2000/svg" xmlns:xlink="http://www.w3.org/1999/xlink"><clipPath id="a"><rect height="52" rx="8" width="423" x="2" y="2.5"/></clipPath><g opacity=".4"><g clip-path="url(#a)"><rect fill="#0063a3" height="53" rx="6.5" width="138" x="1.5" y="2"/><rect fill="#0063a3" height="53" rx="6.5" width="138" x="1.5" y="2"/><path d="m50.6104 37.5h-3.2764v-15.7051h9.0019v2.7285h-5.7255v4.0498h5.3281v2.7178h-5.3281zm12.0664-12.0098v12.0098h-3.2764v-12.0098zm-1.6329-4.705c.487 0 .906.1145 1.2569.3437.3509.222.5263.641.5263 1.2568 0 .6088-.1754 1.0313-.5263 1.2676-.3509.2292-.7699.3438-1.2569.3438-.4941 0-.9166-.1146-1.2675-.3438-.3438-.2363-.5157-.6588-.5157-1.2676 0-.6158.1719-1.0348.5157-1.2568.3509-.2292.7734-.3437 1.2675-.3437zm12.0342 4.4794c.1647 0 .3545.0108.5694.0323.222.0143.401.0358.5371.0644l-.2471 3.0723c-.1074-.0358-.2614-.0609-.4619-.0752-.1934-.0215-.3617-.0322-.5049-.0322-.4225 0-.8343.0537-1.2353.1611-.3939.1074-.7484.2829-1.0635.5264-.3151.2363-.5658.5514-.752.9453-.179.3867-.2685.8629-.2685 1.4287v6.1123h-3.2764v-12.0098h2.4814l.4834 2.0196h.1612c.2363-.4082.5299-.7806.8808-1.1172.3581-.3438.7627-.6159 1.2139-.8164.4583-.2077.9525-.3116 1.4824-.3116zm11.916 8.669c0 .8164-.1933 1.5075-.58 2.0732-.3796.5586-.9489.9847-1.708 1.2784-.7592.2864-1.7045.4296-2.836.4296-.8379 0-1.5576-.0537-2.1592-.1611-.5944-.1074-1.1959-.2864-1.8047-.5371v-2.707c.6517.2936 1.35.5371 2.0948.7304.7519.1862 1.4108.2793 1.9765.2793.6374 0 1.0922-.0931 1.3643-.2793.2793-.1933.4189-.444.4189-.7519 0-.2005-.0572-.3796-.1718-.5371-.1075-.1647-.3438-.3474-.709-.5479-.3653-.2077-.9382-.4762-1.7188-.8056-.7519-.3151-1.3714-.6338-1.8584-.9561-.4798-.3223-.8379-.7018-1.0742-1.1387-.2292-.444-.3437-1.0062-.3437-1.6865 0-1.11.4297-1.9443 1.289-2.5029.8666-.5658 2.0231-.8487 3.4698-.8487.7447 0 1.4537.0752 2.1269.2256.6803.1504 1.3786.3903 2.0947.7198l-.9882 2.3632c-.5944-.2578-1.1566-.469-1.6866-.6337-.5228-.1648-1.0563-.2471-1.6006-.2471-.4798 0-.8414.0644-1.0849.1933s-.3653.3259-.3653.5909c0 .1933.0609.3652.1827.5156.1289.1504.3724.3187.7304.5049.3653.179.8988.4118 1.6006.6982.6804.2793 1.2712.5729 1.7725.8809.5013.3008.888.6767 1.1601 1.1279.2722.444.4082 1.0205.4082 1.7295zm7.8663 1.1709c.358 0 .7054-.0358 1.0419-.1074.3438-.0716.684-.1612 1.0206-.2686v2.4385c-.351.1575-.7878.2865-1.3106.3867-.5156.1074-1.0814.1611-1.6973.1611-.7161 0-1.3606-.1145-1.9336-.3437-.5657-.2363-1.0133-.641-1.3427-1.2139-.3223-.5801-.4834-1.3857-.4834-2.417v-5.79h-1.5684v-1.3857l1.8047-1.0957.9453-2.5352h2.0947v2.5566h3.3623v2.46h-3.3623v5.79c0 .4584.1289.8021.3868 1.0313.2649.222.6123.333 1.042.333z" fill="#fff"/><rect height="53" rx="6.5" stroke="#0063a3" width="138" x="1.5" y="2"/><rect height="53" rx="6.5" stroke="#0063a3" width="138" x="1.5" y="2"/><path d="m182.902 33.1387c0 .931-.225 1.7402-.676 2.4277-.452.6875-1.11 1.2175-1.977 1.5898-.859.3724-1.905.5586-3.137.5586-.544 0-1.077-.0358-1.6-.1074-.516-.0716-1.014-.1754-1.493-.3115-.473-.1432-.924-.3187-1.354-.5264v-3.0937c.745.3294 1.518.6266 2.32.8916s1.597.3974 2.385.3974c.544 0 .981-.0716 1.311-.2148.336-.1432.58-.3402.73-.5908.151-.2507.226-.5371.226-.8594 0-.3939-.133-.7305-.398-1.0098s-.63-.5407-1.095-.7841c-.459-.2435-.978-.5049-1.558-.7842-.365-.1719-.763-.3796-1.192-.6231-.43-.2506-.838-.555-1.225-.9131-.387-.358-.705-.7913-.956-1.2998-.244-.5156-.365-1.1315-.365-1.8476 0-.9382.214-1.7402.644-2.4063.43-.666 1.042-1.1744 1.837-1.5254.802-.358 1.747-.5371 2.836-.5371.816 0 1.593.0967 2.331.2901.745.1862 1.522.4583 2.331.8164l-1.074 2.5888c-.723-.2936-1.371-.5192-1.944-.6767-.573-.1647-1.157-.2471-1.751-.2471-.416 0-.77.0681-1.064.2041-.293.1289-.515.3151-.666.5586-.15.2363-.225.5121-.225.8272 0 .3724.107.6875.322.9453.222.2506.551.4941.988.7304.444.2364.996.5121 1.654.8272.802.3796 1.486.777 2.052 1.1924.573.4082 1.013.8916 1.321 1.4502.308.5514.462 1.2389.462 2.0625zm7.791-7.8741c1.11 0 2.066.2149 2.869.6446.802.4225 1.421 1.0384 1.858 1.8476.437.8093.655 1.7976.655 2.9649v1.5898h-7.745c.036.9239.312 1.6507.827 2.1807.523.5228 1.246.7842 2.17.7842.766 0 1.468-.0788 2.106-.2364.637-.1575 1.292-.3938 1.965-.7089v2.5351c-.594.2936-1.217.5085-1.869.6445-.644.1361-1.428.2041-2.352.2041-1.203 0-2.27-.222-3.201-.666-.924-.444-1.651-1.1207-2.181-2.0302-.523-.9096-.784-2.0554-.784-3.4375 0-1.4037.236-2.571.709-3.502.48-.9381 1.146-1.64 1.998-2.1055.852-.4726 1.844-.709 2.975-.709zm.022 2.3311c-.638 0-1.167.2041-1.59.6123-.415.4082-.655 1.0492-.72 1.9229h4.598c-.007-.487-.097-.9203-.269-1.2998-.164-.3796-.415-.6804-.752-.9024-.329-.222-.752-.333-1.267-.333zm13.151 10.1191c-1.189 0-2.202-.2148-3.04-.6445-.838-.4368-1.475-1.11-1.912-2.0195s-.655-2.0733-.655-3.4912c0-1.4681.247-2.6641.741-3.5879.501-.931 1.192-1.6149 2.073-2.0518.888-.4368 1.916-.6553 3.083-.6553.831 0 1.547.0824 2.149.2471.608.1576 1.138.3473 1.59.5694l-.967 2.5351c-.516-.2077-.996-.376-1.44-.5049-.444-.136-.888-.2041-1.332-.2041-.573 0-1.049.1361-1.428.4082-.38.265-.663.666-.849 1.2032-.186.5371-.279 1.2102-.279 2.0195 0 .7949.1 1.4538.3 1.9765.201.5228.491.9131.871 1.1709.379.2507.841.376 1.385.376.681 0 1.286-.0895 1.816-.2685.53-.1862 1.045-.444 1.547-.7735v2.8037c-.502.3151-1.028.5407-1.58.6768-.544.1432-1.235.2148-2.073.2148zm17.61-6.2412c0 1.0026-.136 1.8907-.409 2.6641-.265.7734-.655 1.4287-1.171 1.9658-.508.53-1.124.931-1.847 1.2031-.716.2722-1.526.4082-2.428.4082-.845 0-1.622-.136-2.331-.4082-.702-.2721-1.314-.6731-1.837-1.2031-.515-.5371-.917-1.1924-1.203-1.9658-.279-.7734-.419-1.6615-.419-2.6641 0-1.332.236-2.4599.709-3.3838.473-.9238 1.146-1.6256 2.02-2.1054.873-.4798 1.915-.7198 3.126-.7198 1.124 0 2.119.24 2.986.7198.874.4798 1.557 1.1816 2.052 2.1054.501.9239.752 2.0518.752 3.3838zm-8.304 0c0 .7878.086 1.4502.258 1.9873s.44.9418.805 1.2139c.366.2721.842.4082 1.429.4082.58 0 1.049-.1361 1.407-.4082.366-.2721.63-.6768.795-1.2139.172-.5371.258-1.1995.258-1.9873 0-.7949-.086-1.4537-.258-1.9765-.165-.53-.429-.9274-.795-1.1924-.365-.265-.841-.3975-1.428-.3975-.867 0-1.497.2972-1.891.8916-.387.5944-.58 1.486-.58 2.6748zm18.082-6.209c1.282 0 2.313.351 3.094 1.0528.78.6946 1.171 1.8118 1.171 3.3515v7.8311h-3.277v-7.0146c0-.8594-.157-1.5075-.472-1.9444-.308-.4368-.795-.6553-1.461-.6553-1.003 0-1.687.3402-2.052 1.0205-.365.6804-.548 1.6615-.548 2.9434v5.6504h-3.276v-12.0098h2.503l.44 1.5362h.183c.257-.4154.576-.752.956-1.0098.386-.2578.812-.4476 1.278-.5693.473-.1218.96-.1827 1.461-.1827zm11.69 12.4502c-1.339 0-2.431-.5227-3.276-1.5683-.838-1.0527-1.257-2.596-1.257-4.6299 0-2.0553.426-3.6094 1.278-4.6621.853-1.0599 1.966-1.5899 3.341-1.5899.573 0 1.078.0788 1.515.2364.437.1575.813.3688 1.128.6338.322.2649.594.5621.816.8916h.108c-.043-.2292-.097-.5658-.161-1.0098-.058-.4512-.086-.9131-.086-1.3857v-3.8457h3.287v16.7148h-2.514l-.634-1.5576h-.139c-.208.3294-.469.6302-.785.9023-.308.265-.676.4763-1.106.6338-.43.1576-.935.2363-1.515.2363zm1.15-2.6103c.895 0 1.525-.265 1.89-.7949.373-.5371.57-1.3428.591-2.417v-.3545c0-1.1673-.179-2.0589-.537-2.6748-.358-.6231-1.024-.9346-1.998-.9346-.723 0-1.289.3115-1.697.9346-.408.623-.613 1.5218-.613 2.6963 0 1.1744.205 2.0589.613 2.6533.415.5944.999.8916 1.751.8916z" fill="#353a40"/><path d="m284.5 16.5v24" stroke="#0063a3"/><path d="m335.117 37.5h-3.33v-12.9336h-4.265v-2.7715h11.86v2.7715h-4.265zm9.95-16.7148v3.4052c0 .5944-.021 1.1602-.064 1.6973-.036.5371-.065.9167-.086 1.1387h.172c.258-.4154.562-.752.913-1.0098.358-.2578.752-.4476 1.182-.5693.429-.1218.891-.1827 1.385-.1827.867 0 1.622.154 2.267.462.644.3007 1.146.777 1.504 1.4287.358.6445.537 1.4824.537 2.5136v7.8311h-3.276v-7.0146c0-.8594-.158-1.5075-.473-1.9444-.315-.4368-.802-.6553-1.461-.6553s-1.178.154-1.558.462c-.379.3007-.648.7483-.805 1.3427-.158.5873-.237 1.307-.237 2.1592v5.6504h-3.276v-16.7148zm14.709 4.705v12.0098h-3.276v-12.0098zm-1.632-4.705c.487 0 .905.1145 1.256.3437.351.222.527.641.527 1.2568 0 .6088-.176 1.0313-.527 1.2676-.351.2292-.769.3438-1.256.3438-.495 0-.917-.1146-1.268-.3438-.344-.2363-.516-.6588-.516-1.2676 0-.6158.172-1.0348.516-1.2568.351-.2292.773-.3437 1.268-.3437zm12.034 4.4794c.164 0 .354.0108.569.0323.222.0143.401.0358.537.0644l-.247 3.0723c-.107-.0358-.261-.0609-.462-.0752-.193-.0215-.361-.0322-.505-.0322-.422 0-.834.0537-1.235.1611-.394.1074-.748.2829-1.064.5264-.315.2363-.565.5514-.751.9453-.18.3867-.269.8629-.269 1.4287v6.1123h-3.276v-12.0098h2.481l.483 2.0196h.162c.236-.4082.53-.7806.88-1.1172.359-.3438.763-.6159 1.214-.8164.459-.2077.953-.3116 1.483-.3116zm7.34 12.4502c-1.34 0-2.432-.5227-3.277-1.5683-.838-1.0527-1.257-2.596-1.257-4.6299 0-2.0553.426-3.6094 1.279-4.6621.852-1.0599 1.966-1.5899 3.341-1.5899.572 0 1.077.0788 1.514.2364.437.1575.813.3688 1.128.6338.322.2649.594.5621.816.8916h.108c-.043-.2292-.097-.5658-.161-1.0098-.058-.4512-.086-.9131-.086-1.3857v-3.8457h3.287v16.7148h-2.514l-.634-1.5576h-.139c-.208.3294-.469.6302-.784.9023-.308.265-.677.4763-1.107.6338-.429.1576-.934.2363-1.514.2363zm1.149-2.6103c.895 0 1.525-.265 1.891-.7949.372-.5371.569-1.3428.59-2.417v-.3545c0-1.1673-.179-2.0589-.537-2.6748-.358-.6231-1.024-.9346-1.998-.9346-.723 0-1.289.3115-1.697.9346-.408.623-.612 1.5218-.612 2.6963 0 1.1744.204 2.0589.612 2.6533.415.5944.999.8916 1.751.8916z" fill="#353a40"/></g><rect height="54" rx="9" stroke="#0063a3" stroke-width="2" width="425" x="1" y="1.5"/></g></svg>

<svg width="427" height="57" viewBox="0 0 427 57" fill="none" xmlns="http://www.w3.org/2000/svg"><g opacity=".4"><g clip-path="url(#clip0_7388_84140)"><rect x="1.5" y="2" width="138" height="53" rx="6.5" fill="#0063A3"/><rect x="1.5" y="2" width="138" height="53" rx="6.5" fill="#0063A3"/><path d="M50.6104 37.5H47.334V21.7949H56.3359V24.5234H50.6104V28.5732H55.9385V31.291H50.6104V37.5ZM62.6768 25.4902V37.5H59.4004V25.4902H62.6768ZM61.0439 20.7852C61.5309 20.7852 61.9499 20.8997 62.3008 21.1289C62.6517 21.3509 62.8271 21.7699 62.8271 22.3857C62.8271 22.9945 62.6517 23.417 62.3008 23.6533C61.9499 23.8825 61.5309 23.9971 61.0439 23.9971C60.5498 23.9971 60.1273 23.8825 59.7764 23.6533C59.4326 23.417 59.2607 22.9945 59.2607 22.3857C59.2607 21.7699 59.4326 21.3509 59.7764 21.1289C60.1273 20.8997 60.5498 20.7852 61.0439 20.7852ZM73.0781 25.2646C73.2428 25.2646 73.4326 25.2754 73.6475 25.2969C73.8695 25.3112 74.0485 25.3327 74.1846 25.3613L73.9375 28.4336C73.8301 28.3978 73.6761 28.3727 73.4756 28.3584C73.2822 28.3369 73.1139 28.3262 72.9707 28.3262C72.5482 28.3262 72.1364 28.3799 71.7354 28.4873C71.3415 28.5947 70.987 28.7702 70.6719 29.0137C70.3568 29.25 70.1061 29.5651 69.9199 29.959C69.7409 30.3457 69.6514 30.8219 69.6514 31.3877V37.5H66.375V25.4902H68.8564L69.3398 27.5098H69.501C69.7373 27.1016 70.0309 26.7292 70.3818 26.3926C70.7399 26.0488 71.1445 25.7767 71.5957 25.5762C72.054 25.3685 72.5482 25.2646 73.0781 25.2646ZM84.9941 33.9336C84.9941 34.75 84.8008 35.4411 84.4141 36.0068C84.0345 36.5654 83.4652 36.9915 82.7061 37.2852C81.9469 37.5716 81.0016 37.7148 79.8701 37.7148C79.0322 37.7148 78.3125 37.6611 77.7109 37.5537C77.1165 37.4463 76.515 37.2673 75.9062 37.0166V34.3096C76.5579 34.6032 77.2562 34.8467 78.001 35.04C78.7529 35.2262 79.4118 35.3193 79.9775 35.3193C80.6149 35.3193 81.0697 35.2262 81.3418 35.04C81.6211 34.8467 81.7607 34.596 81.7607 34.2881C81.7607 34.0876 81.7035 33.9085 81.5889 33.751C81.4814 33.5863 81.2451 33.4036 80.8799 33.2031C80.5146 32.9954 79.9417 32.7269 79.1611 32.3975C78.4092 32.0824 77.7897 31.7637 77.3027 31.4414C76.8229 31.1191 76.4648 30.7396 76.2285 30.3027C75.9993 29.8587 75.8848 29.2965 75.8848 28.6162C75.8848 27.5062 76.3145 26.6719 77.1738 26.1133C78.0404 25.5475 79.1969 25.2646 80.6436 25.2646C81.3883 25.2646 82.0973 25.3398 82.7705 25.4902C83.4508 25.6406 84.1491 25.8805 84.8652 26.21L83.877 28.5732C83.2826 28.3154 82.7204 28.1042 82.1904 27.9395C81.6676 27.7747 81.1341 27.6924 80.5898 27.6924C80.11 27.6924 79.7484 27.7568 79.5049 27.8857C79.2614 28.0146 79.1396 28.2116 79.1396 28.4766C79.1396 28.6699 79.2005 28.8418 79.3223 28.9922C79.4512 29.1426 79.6947 29.3109 80.0527 29.4971C80.418 29.6761 80.9515 29.9089 81.6533 30.1953C82.3337 30.4746 82.9245 30.7682 83.4258 31.0762C83.9271 31.377 84.3138 31.7529 84.5859 32.2041C84.8581 32.6481 84.9941 33.2246 84.9941 33.9336ZM92.8604 35.1045C93.2184 35.1045 93.5658 35.0687 93.9023 34.9971C94.2461 34.9255 94.5863 34.8359 94.9229 34.7285V37.167C94.5719 37.3245 94.1351 37.4535 93.6123 37.5537C93.0967 37.6611 92.5309 37.7148 91.915 37.7148C91.1989 37.7148 90.5544 37.6003 89.9814 37.3711C89.4157 37.1348 88.9681 36.7301 88.6387 36.1572C88.3164 35.5771 88.1553 34.7715 88.1553 33.7402V27.9502H86.5869V26.5645L88.3916 25.4688L89.3369 22.9336H91.4316V25.4902H94.7939V27.9502H91.4316V33.7402C91.4316 34.1986 91.5605 34.5423 91.8184 34.7715C92.0833 34.9935 92.4307 35.1045 92.8604 35.1045Z" fill="#fff"/><rect x="1.5" y="2" width="138" height="53" rx="6.5" stroke="#0063A3"/><rect x="1.5" y="2" width="138" height="53" rx="6.5" stroke="#0063A3"/><path d="M182.902 33.1387C182.902 34.0697 182.677 34.8789 182.226 35.5664C181.774 36.2539 181.116 36.7839 180.249 37.1562C179.39 37.5286 178.344 37.7148 177.112 37.7148C176.568 37.7148 176.035 37.679 175.512 37.6074C174.996 37.5358 174.498 37.432 174.019 37.2959C173.546 37.1527 173.095 36.9772 172.665 36.7695V33.6758C173.41 34.0052 174.183 34.3024 174.985 34.5674C175.787 34.8324 176.582 34.9648 177.37 34.9648C177.914 34.9648 178.351 34.8932 178.681 34.75C179.017 34.6068 179.261 34.4098 179.411 34.1592C179.562 33.9085 179.637 33.6221 179.637 33.2998C179.637 32.9059 179.504 32.5693 179.239 32.29C178.974 32.0107 178.609 31.7493 178.144 31.5059C177.685 31.2624 177.166 31.001 176.586 30.7217C176.221 30.5498 175.823 30.3421 175.394 30.0986C174.964 29.848 174.556 29.5436 174.169 29.1855C173.782 28.8275 173.464 28.3942 173.213 27.8857C172.969 27.3701 172.848 26.7542 172.848 26.0381C172.848 25.0999 173.062 24.2979 173.492 23.6318C173.922 22.9658 174.534 22.4574 175.329 22.1064C176.131 21.7484 177.076 21.5693 178.165 21.5693C178.981 21.5693 179.758 21.666 180.496 21.8594C181.241 22.0456 182.018 22.3177 182.827 22.6758L181.753 25.2646C181.03 24.971 180.382 24.7454 179.809 24.5879C179.236 24.4232 178.652 24.3408 178.058 24.3408C177.642 24.3408 177.288 24.4089 176.994 24.5449C176.701 24.6738 176.479 24.86 176.328 25.1035C176.178 25.3398 176.103 25.6156 176.103 25.9307C176.103 26.3031 176.21 26.6182 176.425 26.876C176.647 27.1266 176.976 27.3701 177.413 27.6064C177.857 27.8428 178.409 28.1185 179.067 28.4336C179.869 28.8132 180.553 29.2106 181.119 29.626C181.692 30.0342 182.132 30.5176 182.44 31.0762C182.748 31.6276 182.902 32.3151 182.902 33.1387ZM190.693 25.2646C191.803 25.2646 192.759 25.4795 193.562 25.9092C194.364 26.3317 194.983 26.9476 195.42 27.7568C195.857 28.5661 196.075 29.5544 196.075 30.7217V32.3115H188.33C188.366 33.2354 188.642 33.9622 189.157 34.4922C189.68 35.015 190.403 35.2764 191.327 35.2764C192.093 35.2764 192.795 35.1976 193.433 35.04C194.07 34.8825 194.725 34.6462 195.398 34.3311V36.8662C194.804 37.1598 194.181 37.3747 193.529 37.5107C192.885 37.6468 192.101 37.7148 191.177 37.7148C189.974 37.7148 188.907 37.4928 187.976 37.0488C187.052 36.6048 186.325 35.9281 185.795 35.0186C185.272 34.109 185.011 32.9632 185.011 31.5811C185.011 30.1774 185.247 29.0101 185.72 28.0791C186.2 27.141 186.866 26.4391 187.718 25.9736C188.57 25.501 189.562 25.2646 190.693 25.2646ZM190.715 27.5957C190.077 27.5957 189.548 27.7998 189.125 28.208C188.71 28.6162 188.47 29.2572 188.405 30.1309H193.003C192.996 29.6439 192.906 29.2106 192.734 28.8311C192.57 28.4515 192.319 28.1507 191.982 27.9287C191.653 27.7067 191.23 27.5957 190.715 27.5957ZM203.866 37.7148C202.677 37.7148 201.664 37.5 200.826 37.0703C199.988 36.6335 199.351 35.9603 198.914 35.0508C198.477 34.1413 198.259 32.9775 198.259 31.5596C198.259 30.0915 198.506 28.8955 199 27.9717C199.501 27.0407 200.192 26.3568 201.073 25.9199C201.961 25.4831 202.989 25.2646 204.156 25.2646C204.987 25.2646 205.703 25.347 206.305 25.5117C206.913 25.6693 207.443 25.859 207.895 26.0811L206.928 28.6162C206.412 28.4085 205.932 28.2402 205.488 28.1113C205.044 27.9753 204.6 27.9072 204.156 27.9072C203.583 27.9072 203.107 28.0433 202.728 28.3154C202.348 28.5804 202.065 28.9814 201.879 29.5186C201.693 30.0557 201.6 30.7288 201.6 31.5381C201.6 32.333 201.7 32.9919 201.9 33.5146C202.101 34.0374 202.391 34.4277 202.771 34.6855C203.15 34.9362 203.612 35.0615 204.156 35.0615C204.837 35.0615 205.442 34.972 205.972 34.793C206.502 34.6068 207.017 34.349 207.519 34.0195V36.8232C207.017 37.1383 206.491 37.3639 205.939 37.5C205.395 37.6432 204.704 37.7148 203.866 37.7148ZM221.476 31.4736C221.476 32.4762 221.34 33.3643 221.067 34.1377C220.802 34.9111 220.412 35.5664 219.896 36.1035C219.388 36.6335 218.772 37.0345 218.049 37.3066C217.333 37.5788 216.523 37.7148 215.621 37.7148C214.776 37.7148 213.999 37.5788 213.29 37.3066C212.588 37.0345 211.976 36.6335 211.453 36.1035C210.938 35.5664 210.536 34.9111 210.25 34.1377C209.971 33.3643 209.831 32.4762 209.831 31.4736C209.831 30.1416 210.067 29.0137 210.54 28.0898C211.013 27.166 211.686 26.4642 212.56 25.9844C213.433 25.5046 214.475 25.2646 215.686 25.2646C216.81 25.2646 217.805 25.5046 218.672 25.9844C219.546 26.4642 220.229 27.166 220.724 28.0898C221.225 29.0137 221.476 30.1416 221.476 31.4736ZM213.172 31.4736C213.172 32.2614 213.258 32.9238 213.43 33.4609C213.602 33.998 213.87 34.4027 214.235 34.6748C214.601 34.9469 215.077 35.083 215.664 35.083C216.244 35.083 216.713 34.9469 217.071 34.6748C217.437 34.4027 217.701 33.998 217.866 33.4609C218.038 32.9238 218.124 32.2614 218.124 31.4736C218.124 30.6787 218.038 30.0199 217.866 29.4971C217.701 28.9671 217.437 28.5697 217.071 28.3047C216.706 28.0397 216.23 27.9072 215.643 27.9072C214.776 27.9072 214.146 28.2044 213.752 28.7988C213.365 29.3932 213.172 30.2848 213.172 31.4736ZM231.254 25.2646C232.536 25.2646 233.567 25.6156 234.348 26.3174C235.128 27.012 235.519 28.1292 235.519 29.6689V37.5H232.242V30.4854C232.242 29.626 232.085 28.9779 231.77 28.541C231.462 28.1042 230.975 27.8857 230.309 27.8857C229.306 27.8857 228.622 28.2259 228.257 28.9062C227.892 29.5866 227.709 30.5677 227.709 31.8496V37.5H224.433V25.4902H226.936L227.376 27.0264H227.559C227.816 26.611 228.135 26.2744 228.515 26.0166C228.901 25.7588 229.327 25.569 229.793 25.4473C230.266 25.3255 230.753 25.2646 231.254 25.2646ZM242.944 37.7148C241.605 37.7148 240.513 37.1921 239.668 36.1465C238.83 35.0938 238.411 33.5505 238.411 31.5166C238.411 29.4613 238.837 27.9072 239.689 26.8545C240.542 25.7946 241.655 25.2646 243.03 25.2646C243.603 25.2646 244.108 25.3434 244.545 25.501C244.982 25.6585 245.358 25.8698 245.673 26.1348C245.995 26.3997 246.267 26.6969 246.489 27.0264H246.597C246.554 26.7972 246.5 26.4606 246.436 26.0166C246.378 25.5654 246.35 25.1035 246.35 24.6309V20.7852H249.637V37.5H247.123L246.489 35.9424H246.35C246.142 36.2718 245.881 36.5726 245.565 36.8447C245.257 37.1097 244.889 37.321 244.459 37.4785C244.029 37.6361 243.524 37.7148 242.944 37.7148ZM244.094 35.1045C244.989 35.1045 245.619 34.8395 245.984 34.3096C246.357 33.7725 246.554 32.9668 246.575 31.8926V31.5381C246.575 30.3708 246.396 29.4792 246.038 28.8633C245.68 28.2402 245.014 27.9287 244.04 27.9287C243.317 27.9287 242.751 28.2402 242.343 28.8633C241.935 29.4863 241.73 30.3851 241.73 31.5596C241.73 32.734 241.935 33.6185 242.343 34.2129C242.758 34.8073 243.342 35.1045 244.094 35.1045Z" fill="#353A40"/><line x1="284.5" y1="16.5" x2="284.5" y2="40.5" stroke="#0063A3"/><path d="M335.117 37.5H331.787V24.5664H327.522V21.7949H339.382V24.5664H335.117V37.5ZM345.067 20.7852V24.1904C345.067 24.7848 345.046 25.3506 345.003 25.8877C344.967 26.4248 344.938 26.8044 344.917 27.0264H345.089C345.347 26.611 345.651 26.2744 346.002 26.0166C346.36 25.7588 346.754 25.569 347.184 25.4473C347.613 25.3255 348.075 25.2646 348.569 25.2646C349.436 25.2646 350.191 25.4186 350.836 25.7266C351.48 26.0273 351.982 26.5036 352.34 27.1553C352.698 27.7998 352.877 28.6377 352.877 29.6689V37.5H349.601V30.4854C349.601 29.626 349.443 28.9779 349.128 28.541C348.813 28.1042 348.326 27.8857 347.667 27.8857C347.008 27.8857 346.489 28.0397 346.109 28.3477C345.73 28.6484 345.461 29.096 345.304 29.6904C345.146 30.2777 345.067 30.9974 345.067 31.8496V37.5H341.791V20.7852H345.067ZM359.776 25.4902V37.5H356.5V25.4902H359.776ZM358.144 20.7852C358.631 20.7852 359.049 20.8997 359.4 21.1289C359.751 21.3509 359.927 21.7699 359.927 22.3857C359.927 22.9945 359.751 23.417 359.4 23.6533C359.049 23.8825 358.631 23.9971 358.144 23.9971C357.649 23.9971 357.227 23.8825 356.876 23.6533C356.532 23.417 356.36 22.9945 356.36 22.3857C356.36 21.7699 356.532 21.3509 356.876 21.1289C357.227 20.8997 357.649 20.7852 358.144 20.7852ZM370.178 25.2646C370.342 25.2646 370.532 25.2754 370.747 25.2969C370.969 25.3112 371.148 25.3327 371.284 25.3613L371.037 28.4336C370.93 28.3978 370.776 28.3727 370.575 28.3584C370.382 28.3369 370.214 28.3262 370.07 28.3262C369.648 28.3262 369.236 28.3799 368.835 28.4873C368.441 28.5947 368.087 28.7702 367.771 29.0137C367.456 29.25 367.206 29.5651 367.02 29.959C366.84 30.3457 366.751 30.8219 366.751 31.3877V37.5H363.475V25.4902H365.956L366.439 27.5098H366.601C366.837 27.1016 367.131 26.7292 367.481 26.3926C367.84 26.0488 368.244 25.7767 368.695 25.5762C369.154 25.3685 369.648 25.2646 370.178 25.2646ZM377.518 37.7148C376.178 37.7148 375.086 37.1921 374.241 36.1465C373.403 35.0938 372.984 33.5505 372.984 31.5166C372.984 29.4613 373.41 27.9072 374.263 26.8545C375.115 25.7946 376.229 25.2646 377.604 25.2646C378.176 25.2646 378.681 25.3434 379.118 25.501C379.555 25.6585 379.931 25.8698 380.246 26.1348C380.568 26.3997 380.84 26.6969 381.062 27.0264H381.17C381.127 26.7972 381.073 26.4606 381.009 26.0166C380.951 25.5654 380.923 25.1035 380.923 24.6309V20.7852H384.21V37.5H381.696L381.062 35.9424H380.923C380.715 36.2718 380.454 36.5726 380.139 36.8447C379.831 37.1097 379.462 37.321 379.032 37.4785C378.603 37.6361 378.098 37.7148 377.518 37.7148ZM378.667 35.1045C379.562 35.1045 380.192 34.8395 380.558 34.3096C380.93 33.7725 381.127 32.9668 381.148 31.8926V31.5381C381.148 30.3708 380.969 29.4792 380.611 28.8633C380.253 28.2402 379.587 27.9287 378.613 27.9287C377.89 27.9287 377.324 28.2402 376.916 28.8633C376.508 29.4863 376.304 30.3851 376.304 31.5596C376.304 32.734 376.508 33.6185 376.916 34.2129C377.331 34.8073 377.915 35.1045 378.667 35.1045Z" fill="#353A40"/></g><rect x="1" y="1.5" width="425" height="54" rx="9" stroke="#0063A3" stroke-width="2"/></g><defs><clipPath id="clip0_7388_84140"><rect x="2" y="2.5" width="423" height="52" rx="8" fill="#fff"/></clipPath></defs></svg>
